X: 21114
Q: "Moderate."
M: 3/4
L: 1/16
K: A
e2 |\
e4 c4 d4 | (e3f) f6 e2 | (e2d2) c4 B4 | (e3c) A4 z2e2 |\
e4 c4 d4 | (e3f) f6 e2 | (a2g2)(f2e2)(d2c2) | (e3d) B4 z2 :|
|: B2 |\
e4 c4 d4 | (e2a2)(g2b2)(a2e2) | ({g}f2ed) c4 (B3A) | A8 z2 :|


